X: 10552
T: SHIP IN FULL SAIL
C:
%R: reel
B: Elias Howe "The Musician's Companion" Part 1 1842 p.55 #2
S: http://imslp.org/wiki/The_Musician's_Companion_(Howe,_Elias)
Z: 2015 John Chambers <jc:trillian.mit.edu>
M: C|
L: 1/8
K: D
% - - - - - - - - - - - - - - - - - - - - - - - - -
A,2 |\
DDAG FDEC | D2D2 D2EF | GFGA BGAF | GEAF E2E2 |\
DDAG FDEC | D2D2 D2d2 | egfd cAB^G | A2A2A2 :|
|: A2 |\
dcBA GFED | F2FF F2A2 | defd cdec | defd cBAc |\
dcdA GFGA | BGAF E2F2 | GBAG FDEC | D2D2D2 :|
% - - - - - - - - - - - - - - - - - - - - - - - - -
